svg/muteHashtag.svg

<svg width="284" height="284" viewBox="0 0 284 284" fill="none" xmlns="http://www.w3.org/2000/svg">
<path fill-rule="evenodd" clip-rule="evenodd" d="M142.236 25.4451C77.995 25.4451 25.918 77.5231 25.918 141.763C25.918 187.722 52.575 227.451 91.268 246.344C95.527 240.548 99.742 234.709 103.937 228.821C70.509 214.058 47.118 180.593 47.118 141.763C47.118 121.311 53.607 102.347 64.634 86.8191L197.181 219.366C181.653 230.393 162.688 236.882 142.236 236.882C128.617 236.882 115.661 233.999 103.937 228.821C99.742 234.709 95.527 240.548 91.268 246.344C106.66 253.859 123.954 258.082 142.236 258.082C194.016 258.082 237.885 224.245 252.959 177.479C246.123 175.61 239.187 173.994 232.152 172.781C228.674 182.831 223.565 192.127 217.129 200.338L83.661 66.8711C99.819 54.2051 120.161 46.6451 142.236 46.6451C194.685 46.6451 237.354 89.3151 237.354 141.763C237.354 152.62 235.517 163.054 232.152 172.781C239.187 173.994 246.123 175.61 252.959 177.479C256.587 166.224 258.554 154.224 258.554 141.763C258.554 77.5231 206.477 25.4451 142.236 25.4451Z" fill="#1A1919"/>
<path fill-rule="evenodd" clip-rule="evenodd" d="M186.164 156.453H179.239L191.855 169.069C193.037 167.729 193.76 165.976 193.76 164.049C193.76 159.853 190.359 156.453 186.164 156.453Z" fill="#1A1919"/>
<path fill-rule="evenodd" clip-rule="evenodd" d="M137.862 115.077L145.272 83.6695C146.236 79.5865 143.708 75.4965 139.625 74.5325C135.541 73.5705 131.45 76.0985 130.487 80.1815L125.233 102.448L137.862 115.077Z" fill="#1A1919"/>
<path fill-rule="evenodd" clip-rule="evenodd" d="M154.485 131.7H154.509L154.505 131.72L167.135 144.35L170.12 131.7H196.056C200.252 131.7 203.652 128.3 203.652 124.104C203.652 119.909 200.252 116.508 196.056 116.508H173.705L181.454 83.6698C182.416 79.5868 179.887 75.4968 175.805 74.5328C171.72 73.5698 167.63 76.0988 166.667 80.1818L158.094 116.508H139.293L154.485 131.7Z" fill="#1A1919"/>
<path fill-rule="evenodd" clip-rule="evenodd" d="M144.775 172.957L137.094 205.51C136.131 209.593 138.66 213.684 142.742 214.648C143.329 214.786 143.915 214.851 144.493 214.851C147.936 214.851 151.055 212.495 151.88 208.999L157.405 185.587L144.775 172.957Z" fill="#1A1919"/>
<path fill-rule="evenodd" clip-rule="evenodd" d="M98.3089 131.7H103.518L91.8829 120.065C91.1459 121.237 90.7129 122.618 90.7129 124.104C90.7129 128.3 94.1139 131.7 98.3089 131.7Z" fill="#1A1919"/>
<path fill-rule="evenodd" clip-rule="evenodd" d="M128.271 156.453H128.099L128.132 156.314L115.502 143.684L112.49 156.453H88.4163C84.2213 156.453 80.8203 159.853 80.8203 164.049C80.8203 168.244 84.2213 171.645 88.4163 171.645H108.905L100.915 205.51C99.9513 209.592 102.48 213.683 106.563 214.647C107.149 214.786 107.737 214.852 108.314 214.852C111.757 214.852 114.876 212.495 115.7 208.997L124.514 171.645H143.463L128.271 156.453Z" fill="#1A1919"/>
</svg>

<svg width="284" height="284" viewBox="0 0 284 284" xmlns="http://www.w3.org/2000/svg">
    <g fill="#1A1918" fill-rule="evenodd">
        <path d="M142.236 25.445c-64.24 0-116.318 52.078-116.318 116.318 0 45.96 26.657 85.688 65.35 104.581a1473.563 1473.563 0 0 0 12.67-17.523c-33.429-14.763-56.82-48.228-56.82-87.058 0-20.452 6.49-39.416 17.516-54.944l132.547 132.547c-15.528 11.027-34.493 17.516-54.945 17.516-13.619 0-26.575-2.883-38.299-8.06a1473.563 1473.563 0 0 1-12.669 17.522c15.392 7.515 32.686 11.738 50.968 11.738 51.78 0 95.65-33.837 110.723-80.603-6.836-1.869-13.772-3.485-20.807-4.698a95.077 95.077 0 0 1-15.023 27.557L83.661 66.871c16.158-12.666 36.5-20.226 58.575-20.226 52.45 0 95.118 42.67 95.118 95.118a94.699 94.699 0 0 1-5.202 31.018c7.035 1.213 13.971 2.83 20.807 4.698a116.215 116.215 0 0 0 5.595-35.716c0-64.24-52.077-116.318-116.318-116.318"/>
        <path d="M186.164 156.453h-6.925l12.616 12.616a7.56 7.56 0 0 0 1.905-5.02 7.596 7.596 0 0 0-7.596-7.596M137.862 115.076l7.41-31.406a7.594 7.594 0 0 0-5.647-9.138 7.597 7.597 0 0 0-9.138 5.65l-5.254 22.266 12.63 12.629zM154.485 131.7h.024l-.004.02 12.63 12.63 2.985-12.65h25.936c4.196 0 7.596-3.4 7.596-7.596 0-4.195-3.4-7.596-7.596-7.596h-22.35l7.748-32.838a7.596 7.596 0 1 0-14.787-3.488l-8.573 36.326h-18.8l15.191 15.192zM144.775 172.957l-7.681 32.553a7.598 7.598 0 0 0 7.399 9.341 7.599 7.599 0 0 0 7.387-5.852l5.525-23.412-12.63-12.63zM98.309 131.7h5.209l-11.635-11.635a7.559 7.559 0 0 0-1.17 4.039 7.596 7.596 0 0 0 7.596 7.596M128.271 156.453h-.172l.033-.139-12.63-12.63-3.012 12.77H88.416a7.596 7.596 0 0 0 0 15.192h20.49l-7.99 33.864a7.596 7.596 0 1 0 14.784 3.487l8.814-37.352h18.95l-15.193-15.192z"/>
    </g>
</svg>
